Marwaita/16x16/panel/obs-tray.svg

<svg xmlns="http://www.w3.org/2000/svg" width="16" height="16" version="1.1">
 <defs>
  <style id="current-color-scheme" type="text/css">
   .ColorScheme-Text { color:#dfdfdf; } .ColorScheme-Highlight { color:#4285f4; }
  </style>
 </defs>
 <path style="fill:currentColor" class="ColorScheme-Text" d="M 8.0000057,0.9999897 A 7.0000104,7.0000104 0 0 0 7.2924847,1.0358787 7.0000104,7.0000104 0 0 0 6.608891,1.1401269 c -0.1803868,0.036589 -0.3563749,0.08478 -0.5314952,0.13501 a 7.0000104,7.0000104 0 0 0 -0.1555175,0.041016 c -0.031482,0.00982 -0.060988,0.023924 -0.092285,0.03418 A 7.0000104,7.0000104 0 0 0 2.609861,3.5429631 c -0.00306,0.00371 -0.00717,0.00654 -0.010255,0.010254 A 7.0000104,7.0000104 0 0 0 2.2578095,4.0112254 c -0.024552,0.035222 -0.051275,0.068561 -0.075198,0.1042483 a 7.0000104,7.0000104 0 0 0 -0.2375497,0.38794 c -0.044432,0.076568 -0.090016,0.1523556 -0.131592,0.2307132 A 7.0000104,7.0000104 0 0 0 1.6442805,5.0878874 c -0.040565,0.08807 -0.082661,0.174908 -0.1196293,0.264893 a 7.0000104,7.0000104 0 0 0 -0.1384279,0.375977 c -0.032655,0.09466 -0.065354,0.188969 -0.093994,0.285401 a 7.0000104,7.0000104 0 0 0 -0.085453,0.329834 c -0.030975,0.126767 -0.061513,0.253479 -0.085453,0.382813 a 7.0000104,7.0000104 0 0 0 -0.042726,0.283692 c -0.018296,0.128171 -0.036636,0.255953 -0.047854,0.386231 a 7.0000104,7.0000104 0 0 0 -0.030765,0.603272 7.0000104,7.0000104 0 0 0 0.035884,0.707521 c 2.266e-4,0.0023 -2.284e-4,0.0046 0,0.0068 a 7.0000104,7.0000104 0 0 0 0.1042485,0.67676 c 0.036593,0.180385 0.084779,0.356374 0.1350101,0.531495 a 7.0000104,7.0000104 0 0 0 0.041011,0.1520986 c 0.010133,0.03254 0.023581,0.06337 0.034178,0.0957 a 7.0000104,7.0000104 0 0 0 2.1926307,3.219733 c 0.00367,0.0031 0.00656,0.0072 0.010255,0.01026 a 7.0000104,7.0000104 0 0 0 0.4580081,0.341797 c 0.035219,0.02455 0.068556,0.05128 0.1042477,0.0752 a 7.0000104,7.0000104 0 0 0 0.3879405,0.237549 c 0.076571,0.04443 0.1523553,0.09002 0.2307134,0.131592 a 7.0000104,7.0000104 0 0 0 0.3537604,0.16919 c 0.088075,0.04057 0.1749075,0.08266 0.2648926,0.119629 a 7.0000104,7.0000104 0 0 0 0.3759767,0.138428 c 0.094663,0.03266 0.1889688,0.06535 0.2854009,0.09399 a 7.0000104,7.0000104 0 0 0 0.3298346,0.08545 c 0.1267667,0.03098 0.2534782,0.06151 0.382813,0.08545 a 7.0000104,7.0000104 0 0 0 0.2836922,0.04273 c 0.12817,0.0183 0.255953,0.03664 0.38623,0.04785 a 7.0000104,7.0000104 0 0 0 0.603273,0.03079 7.0000104,7.0000104 0 0 0 0.70752,-0.03589 7.0000104,7.0000104 0 0 0 0.0068,0 c 0.229158,-0.02337 0.454591,-0.05918 0.676759,-0.104247 0.180386,-0.03659 0.356374,-0.08478 0.531496,-0.13501 0.04792,-0.01375 0.09776,-0.02285 0.1452633,-0.0376 a 7.0000104,7.0000104 0 0 0 0.01025,-0.0034 c 0.03148,-0.0098 0.06099,-0.02392 0.09229,-0.03418 a 7.0000104,7.0000104 0 0 0 3.219731,-2.192631 7.0000104,7.0000104 0 0 0 0.0086,-0.0086 c 5.07e-4,-6.15e-4 0.0012,-10e-4 0.0018,-0.0017 a 7.0000104,7.0000104 0 0 0 0.341727,-0.457941 c 0.02455,-0.03522 0.05128,-0.06856 0.0752,-0.104248 a 7.0000104,7.0000104 0 0 0 0.237549,-0.38794 c 0.04443,-0.07657 0.09001,-0.152356 0.131591,-0.230713 a 7.0000104,7.0000104 0 0 0 0.16919,-0.353761 c 0.04056,-0.08808 0.08266,-0.174908 0.11963,-0.264892 a 7.0000104,7.0000104 0 0 0 0.138427,-0.375978 c 0.03266,-0.09466 0.06535,-0.188968 0.09399,-0.2854006 a 7.0000104,7.0000104 0 0 0 0.08545,-0.329834 c 0.03098,-0.126767 0.06151,-0.253477 0.08545,-0.382813 a 7.0000104,7.0000104 0 0 0 0.04273,-0.283691 c 0.0183,-0.128172 0.03664,-0.255954 0.04785,-0.386232 a 7.0000104,7.0000104 0 0 0 0.03075,-0.603272 7.0000104,7.0000104 0 0 0 -0.03589,-0.707521 7.0000104,7.0000104 0 0 0 0,-0.0068 c -0.02337,-0.229169 -0.05918,-0.454601 -0.104244,-0.67677 -0.03659,-0.180386 -0.08478,-0.356374 -0.13501,-0.531494 -0.01375,-0.04792 -0.02285,-0.09776 -0.0376,-0.145264 a 7.0000104,7.0000104 0 0 0 -0.0034,-0.01025 c -0.0098,-0.03148 -0.02392,-0.06099 -0.03418,-0.09229 a 7.0000104,7.0000104 0 0 0 -2.19263,-3.2197309 7.0000104,7.0000104 0 0 0 -0.0086,-0.00855 c -6.15e-4,-5.079e-4 -10e-4,-0.0012 -0.0017,-0.00171 a 7.0000104,7.0000104 0 0 0 -0.45794,-0.3417954 c -0.03522,-0.024553 -0.06856,-0.051276 -0.104248,-0.075195 A 7.0000104,7.0000104 0 0 0 11.49656,1.9450584 c -0.07657,-0.04443 -0.152356,-0.090016 -0.230713,-0.131592 A 7.0000104,7.0000104 0 0 0 10.912086,1.6442767 c -0.08807,-0.040568 -0.174909,-0.082662 -0.264892,-0.1196291 a 7.0000104,7.0000104 0 0 0 -0.375978,-0.138428 c -0.09466,-0.032651 -0.188969,-0.065349 -0.2854013,-0.093994 a 7.0000104,7.0000104 0 0 0 -0.329834,-0.085449 c -0.126765,-0.030977 -0.25348,-0.061511 -0.382813,-0.085449 a 7.0000104,7.0000104 0 0 0 -0.283691,-0.042725 c -0.128169,-0.018298 -0.255958,-0.036635 -0.386232,-0.047851 a 7.0000104,7.0000104 0 0 0 -0.603272,-0.030762 z m 0,1.7500027 a 5.2500078,5.2500078 0 0 1 5.2141193,4.692879 c -0.145146,-0.231162 -0.31153,-0.453057 -0.517823,-0.656252 -0.5754,-0.569661 -1.275801,-0.907536 -2.103763,-1.018556 -0.1232,-0.01652 -0.226355,-0.04678 -0.394776,0.01538 -0.16842,0.0616 -0.2510813,0.195994 -0.3007813,0.280275 -0.07182,0.12152 -0.481619,0.540572 -0.71094,0.687012 -0.650721,0.415801 -1.763546,0.415941 -2.4165057,0 C 5.9974347,6.2589114 5.5557025,5.2939614 5.6945827,4.4436001 5.7732629,3.9622794 5.9794228,3.5447462 6.3183635,3.1857857 6.3887835,3.1111657 6.441099,3.0528071 6.4841351,3.004633 6.4944861,2.993038 6.5025101,2.978456 6.5114791,2.968744 A 5.2500078,5.2500078 0 0 1 8.0000057,2.7499924 Z M 4.7307137,3.8915956 C 4.5236752,4.346061 4.3861346,4.9305494 4.3872073,5.4108854 c 0.00105,0.448476 0.1101461,0.979495 0.2802743,1.404787 0.04494,0.11228 0.099075,0.26327 0.2614749,0.364014 0.1624142,0.1008 0.279569,0.09616 0.4426274,0.114503 0.1416801,0.01596 0.4345641,0.08194 0.5639663,0.126464 1.3032895,0.448379 1.9158415,1.941177 1.3039565,3.1906786 -0.4105222,0.838265 -1.3981015,1.393748 -2.2661167,1.295412 -0.1124201,-0.0126 -0.1952189,-0.01936 -0.271729,-0.0188 -0.03822,2.66e-4 -0.065538,-0.006 -0.1469722,0.0188 -0.00962,0.0026 -0.02541,0.01067 -0.037599,0.01538 A 5.2500078,5.2500078 0 0 1 2.7499976,8.0000004 5.2500078,5.2500078 0 0 1 4.7307137,3.8915956 Z m 0.3999035,1.3347188 0.00166,0.0017 c 0.09184,0.552148 0.3133091,1.020206 0.6853037,1.450931 -0.1276803,-0.02898 -0.2516792,-0.06915 -0.3657234,-0.08203 -0.1278202,-0.01456 -0.1341071,-0.01835 -0.1230471,-0.0086 -0.0042,-0.0098 -0.00245,-0.0067 -0.013676,-0.03247 -0.1281002,-0.320461 -0.2264556,-0.820559 -0.2272956,-1.148439 -1.12e-4,-0.04844 0.037406,-0.122899 0.042726,-0.181153 z m 5.3388748,1.223635 c 0.0084,5.04e-4 -0.02233,0.0066 0.02905,0.01368 0.285405,0.03822 0.45977,0.237954 0.695558,0.333252 -0.295694,-0.04466 -0.563804,-0.215121 -0.866456,-0.164063 -0.06034,0.0098 -0.07792,0.08055 -0.136719,0.09399 0.0889,-0.0994 0.215174,-0.175356 0.278565,-0.276856 z m 0.364014,0.84424 c 0.908559,0.02156 1.804655,0.62892 2.132816,1.502199 0.02604,0.06944 0.04472,0.121937 0.06152,0.164063 0.0084,0.021 0.0174,0.03854 0.02734,0.05982 0.0056,0.0112 0.0094,0.0208 0.0188,0.0376 0.0042,0.0084 0.01113,0.01889 0.02051,0.03247 0.0058,0.0083 0.01778,0.02042 0.03076,0.03418 A 5.2500078,5.2500078 0 0 1 8.0000007,13.250016 5.2500078,5.2500078 0 0 1 5.7936988,12.756118 c 0.3186124,2.17e-4 0.6345056,-0.02192 0.8972186,-0.102539 l 0.027344,-0.0086 0.018795,-0.01026 0.00516,-0.0034 c 0.7092403,-0.23149 1.4531843,-0.75191 1.8645043,-1.329592 l 0.22046,-0.305909 -0.20337,-0.610108 c -0.471381,-1.4263216 0.359619,-2.8175326 1.8217813,-3.0642126 0.12866,-0.0217 0.257459,-0.03042 0.387939,-0.02734 z m -1.7414583,0.177734 c -0.506521,0.411601 -0.909888,0.923299 -1.115968,1.5022 -0.19502,-0.558741 -0.563203,-1.072921 -1.0390632,-1.483401 0.7056002,0.26432 1.4579702,0.263582 2.1550312,-0.018799 z m -1.119386,3.1718786 0.0769,0.235841 -0.01368,0.01879 c -0.0798,0.11214 -0.297877,0.183463 -0.434083,0.304199 0.07378,-0.11004 0.207787,-0.16189 0.266602,-0.281982 0.04508,-0.09198 0.07135,-0.184722 0.104249,-0.276856 z"/>
</svg>

<svg xmlns="http://www.w3.org/2000/svg" width="16" height="16" version="1.1">
 <defs>
  <style id="current-color-scheme" type="text/css">
   .ColorScheme-Text { color:#dfdfdf; } .ColorScheme-Highlight { color:#4285f4; } .ColorScheme-NeutralText { color:#ff9800; } .ColorScheme-PositiveText { color:#4caf50; } .ColorScheme-NegativeText { color:#f44336; }
  </style>
 </defs>
 <path style="fill:currentColor" class="ColorScheme-Text" d="M 8,1 A 7,7 0 0 0 1,8 7,7 0 0 0 8,15 7,7 0 0 0 15,8 7,7 0 0 0 8,1 Z M 8,2.75 A 5.25,5.25 0 0 1 13.215,7.4434 C 13.07,7.2122 12.902,6.9903 12.695,6.7871 12.12,6.2175 11.422,5.8786 10.594,5.7676 10.47,5.751 10.365,5.7211 10.197,5.7832 10.028,5.8448 9.9462,5.9802 9.8965,6.0645 9.8247,6.186 9.4149,6.6036 9.1855,6.75 8.5348,7.1658 7.4225,7.166 6.7695,6.75 5.9974,6.2582 5.5564,5.2938 5.6953,4.4434 5.774,3.9621 5.9794,3.5444 6.3184,3.1855 6.3888,3.1109 6.4414,3.0521 6.4844,3.0039 6.4948,2.9923 6.5027,2.9786 6.5117,2.9688 A 5.25,5.25 0 0 1 8,2.75 Z M 4.7305,3.8906 C 4.5235,4.3451 4.3856,4.9298 4.3867,5.4102 4.3878,5.8587 4.4979,6.3911 4.668,6.8164 4.7129,6.9287 4.7673,7.0789 4.9297,7.1797 5.0921,7.2805 5.208,7.2765 5.3711,7.2949 5.5128,7.3108 5.806,7.3753 5.9355,7.4199 7.2387,7.8682 7.8521,9.3621 7.2402,10.611 6.8297,11.45 5.8407,12.004 4.9727,11.906 4.8603,11.893 4.7777,11.888 4.7012,11.889 4.6629,11.889 4.6361,11.881 4.5547,11.906 4.5451,11.908 4.5298,11.917 4.5176,11.922 A 5.25,5.25 0 0 1 2.75,8 5.25,5.25 0 0 1 4.7305,3.8906 Z M 5.1309,5.2266 5.1328,5.2285 C 5.2246,5.7807 5.4464,6.249 5.8184,6.6797 5.6907,6.6508 5.5652,6.6106 5.4512,6.5977 5.3233,6.5832 5.3171,6.5782 5.3281,6.5879 5.3239,6.5781 5.3258,6.5824 5.3145,6.5566 5.1864,6.2362 5.0888,5.7361 5.0879,5.4082 5.0878,5.3598 5.1255,5.2848 5.1309,5.2266 Z M 10.469,6.4492 C 10.478,6.4498 10.446,6.4558 10.498,6.4629 10.783,6.5011 10.957,6.7016 11.193,6.7969 10.897,6.7522 10.63,6.5818 10.328,6.6328 10.267,6.6426 10.25,6.7132 10.191,6.7266 10.28,6.6272 10.406,6.5507 10.469,6.4492 Z M 10.834,7.2949 C 11.742,7.3164 12.639,7.9236 12.967,8.7969 12.993,8.8663 13.01,8.9187 13.027,8.9609 13.035,8.9819 13.045,8.9982 13.055,9.0195 13.061,9.0307 13.065,9.0418 13.074,9.0586 13.078,9.067 13.085,9.0763 13.094,9.0898 13.1,9.0981 13.112,9.1113 13.125,9.125 A 5.25,5.25 0 0 1 8,13.25 5.25,5.25 0 0 1 5.793,12.756 C 6.1116,12.756 6.4287,12.734 6.6914,12.654 L 6.7188,12.645 6.7363,12.635 6.7422,12.631 C 7.4515,12.4 8.1961,11.88 8.6074,11.303 L 8.8281,10.996 8.623,10.387 C 8.1516,8.9601 8.9827,7.569 10.445,7.3223 10.573,7.3006 10.703,7.2918 10.834,7.2949 Z M 9.0918,7.4727 C 8.5853,7.8843 8.1827,8.3957 7.9766,8.9746 7.7816,8.4159 7.4134,7.9007 6.9375,7.4902 7.6431,7.7545 8.3948,7.7551 9.0918,7.4727 Z M 7.9727,10.645 8.0488,10.881 8.0352,10.898 C 7.9554,11.011 7.7378,11.082 7.6016,11.203 7.6754,11.093 7.8103,11.042 7.8691,10.922 7.9142,10.83 7.9399,10.737 7.9727,10.645 Z"/>
</svg>
